.files/icons/devices/Diagnostics.svg

<svg fill="none" height="48" viewBox="0 0 48 48" width="48" xmlns="http://www.w3.org/2000/svg"><g fill="#000"><rect height="36" opacity=".3" rx="2" width="40" x="4" y="6"/><path d="m19.8974 26.6324c-.2723.8167-1.0365 1.3676-1.8974 1.3676h-8c-1.10457 0-2-.8955-2-2 0-1.1046.89543-2 2-2h6.5585l3.5441-10.6325c.6328-1.8982 3.3524-1.7938 3.8377.1474l3.6887 14.7549 1.5821-3.1643c.3388-.6775 1.0314-1.1055 1.7889-1.1055h7c1.1046 0 2 .8954 2 2 0 1.1045-.8954 2-2 2h-5.7639l-3.4472 6.8944c-.8304 1.6608-3.2788 1.392-3.7292-.4094l-3.3342-13.3369z"/><path clip-rule="evenodd" d="m38 14c1.1046 0 2-.8954 2-2s-.8954-2-2-2-2 .8954-2 2 .8954 2 2 2z" fill-rule="evenodd" opacity=".3"/></g></svg>

<svg width="48" height="48" viewBox="0 0 48 48" fill="none" xmlns="http://www.w3.org/2000/svg">
<rect opacity="0.3" x="4" y="6" width="40" height="36" rx="2" fill="black"/>
<path d="M19.8974 26.6324C19.6251 27.4491 18.8609 28 18 28H10C8.89543 28 8 27.1045 8 26C8 24.8954 8.89543 24 10 24H16.5585L20.1026 13.3675C20.7354 11.4693 23.455 11.5737 23.9403 13.5149L27.629 28.2698L29.2111 25.1055C29.5499 24.428 30.2425 24 31 24H38C39.1046 24 40 24.8954 40 26C40 27.1045 39.1046 28 38 28H32.2361L28.7889 34.8944C27.9585 36.5552 25.5101 36.2864 25.0597 34.485L21.7255 21.1481L19.8974 26.6324Z" fill="black"/>
<path opacity="0.3" fill-rule="evenodd" clip-rule="evenodd" d="M38 14C39.1046 14 40 13.1046 40 12C40 10.8954 39.1046 10 38 10C36.8954 10 36 10.8954 36 12C36 13.1046 36.8954 14 38 14Z" fill="black"/>
</svg>
